public/sheesh/icons9.svg

<svg fill="none" height="40" viewBox="0 0 40 40" width="40" xmlns="http://www.w3.org/2000/svg" xmlns:xlink="http://www.w3.org/1999/xlink"><linearGradient id="a"><stop offset="0" stop-color="#34c796"/><stop offset="1" stop-color="#0b7a55"/></linearGradient><linearGradient id="b" gradientUnits="userSpaceOnUse" x1="20" x2="20" xlink:href="#a" y1="0" y2="40"/><linearGradient id="c" gradientUnits="userSpaceOnUse" x1="19.9999" x2="19.9999" xlink:href="#a" y1="11.1113" y2="28.89"/><circle cx="20" cy="20" fill="#151722" r="19" stroke="url(#b)" stroke-width="2"/><path clip-rule="evenodd" d="m17.9997 27.5566v-14.6675c0-.9778.4-1.7778 1.6-1.7778h.8c1.2 0 1.6.8 1.6 1.7778v14.6675h2.4446v-4.8888c0-.9778.3556-1.7778 1.4223-1.7778h.7111c1.0666 0 1.4222.8 1.4222 1.7778v4.8888h.8889c.3644 0 .6666.3023.6666.6667s-.3022.6667-.6666.6667h-.8889-3.5556-13.3333c-.3644 0-.6667-.3023-.6667-.6667s.3023-.6667.6667-.6667h.8887v-9.3342c0-.9777.3555-1.7777 1.4222-1.7777h.7111c1.0667 0 1.4222.8 1.4222 1.7777v9.3342z" fill="url(#c)" fill-rule="evenodd"/></svg>

<svg width="40" height="40" viewBox="0 0 40 40" fill="none" xmlns="http://www.w3.org/2000/svg">
<circle cx="20" cy="20" r="19" fill="#151722" stroke="url(#paint0_linear_342_13682)" stroke-width="2"/>
<path fill-rule="evenodd" clip-rule="evenodd" d="M17.9997 27.5566V12.8891C17.9997 11.9113 18.3997 11.1113 19.5997 11.1113H20.3997C21.5997 11.1113 21.9997 11.9113 21.9997 12.8891V27.5566H24.4443V22.6678C24.4443 21.69 24.7999 20.89 25.8666 20.89H26.5777C27.6443 20.89 27.9999 21.69 27.9999 22.6678V27.5566H28.8888C29.2532 27.5566 29.5554 27.8589 29.5554 28.2233C29.5554 28.5877 29.2532 28.89 28.8888 28.89H27.9999H24.4443H11.111C10.7466 28.89 10.4443 28.5877 10.4443 28.2233C10.4443 27.8589 10.7466 27.5566 11.111 27.5566H11.9997V18.2224C11.9997 17.2447 12.3552 16.4447 13.4219 16.4447H14.133C15.1997 16.4447 15.5552 17.2447 15.5552 18.2224V27.5566H17.9997Z" fill="url(#paint1_linear_342_13682)"/>
<defs>
<linearGradient id="paint0_linear_342_13682" x1="20" y1="0" x2="20" y2="40" gradientUnits="userSpaceOnUse">
<stop stop-color="#34C796"/>
<stop offset="1" stop-color="#0B7A55"/>
</linearGradient>
<linearGradient id="paint1_linear_342_13682" x1="19.9999" y1="11.1113" x2="19.9999" y2="28.89" gradientUnits="userSpaceOnUse">
<stop stop-color="#34C796"/>
<stop offset="1" stop-color="#0B7A55"/>
</linearGradient>
</defs>
</svg>
